X:1155
T:Scotch Hornpipe
A:Wyresdale, Lancashire
B:E and J Winder, 1835-41
L:1/8
M:C|
O:England
Z:Richard Robinson 
%%TUNEURL: http://www.leeds.ac.uk/music/Info/RRTuneBk/gettune/00001159.html
%%ID:00001159
K:G
% 1st line from page 95
(BA) | G2GA GABc | d2g2 dBAG     | c2ce dBAG | FGAB A2
(AB) | cBcd efge | dcBA G2 (3FED | \
%line from preceding page (94)
GBAc BdAc | B2G2 G2 ::
g2 | dBGB dBge | dBGB A2AB | cBcd efge | \
% 2nd line from page 95
d2d2 d2
(cB) | cBcd efge | dcBA G2(3FED | GBAc BdAc | B2G2 G2 ::
%%newpage
%page 96
